X: 20
T: Paddy Ryan's Dream
Z: ceili
S: https://thesession.org/tunes/79#setting51020
R: reel
M: 4/4
L: 1/8
K: Amin
cB|: "Am"AE E/E/E cABG | "G"EGDB, G,B,DB, | "Am"A,/A,/A, A,B, CB,CD | "E7"cABG "A"ABcB |
"Am"AE E/E/E cABG | "G"EGDB, G,B,DB, | "Am"A,/A,/A, A,B, CB,CD | "E7"cABG "A"ABcB :|
|: "Am"Aaa^g aecA|"G"Ggg^f gdBG | "Am"Aaa^g aefd | "E7"edcB "Am"cBAG |
"Am"Aaa^g aecA | "G"Ggg^f gdBG | "Am"Ac"G"Bd "Am"ce"Dm"df |1 "E7"edcB "Am"cBAG :|2"E7"edcB "Am"A4||

